icons/filled/square-rounded-letter-f.svg

<svg xmlns="http://www.w3.org/2000/svg" width="24" height="24" viewBox="0 0 24 24" fill="currentColor"><path d="M11.676 2.001l.324 -.001c7.752 0 10 2.248 10 10l-.005 .642c-.126 7.235 -2.461 9.358 -9.995 9.358l-.642 -.005c-7.13 -.125 -9.295 -2.395 -9.358 -9.67v-.325c0 -7.643 2.185 -9.936 9.676 -9.999m2.324 4.999h-4a1 1 0 0 0 -1 1v8a1 1 0 0 0 1 1l.117 -.007a1 1 0 0 0 .883 -.993v-3h2a1 1 0 0 0 .993 -.883l.007 -.117a1 1 0 0 0 -1 -1h-2v-2h3a1 1 0 0 0 0 -2"/></svg>

<svg xmlns="http://www.w3.org/2000/svg" width="24" height="24" fill="currentColor"><path d="M11.676 2.001 12 2c7.752 0 10 2.248 10 10l-.005.642C21.869 19.877 19.534 22 12 22l-.642-.005C4.228 21.87 2.063 19.6 2 12.325V12c0-7.643 2.185-9.936 9.676-9.999M14 7h-4a1 1 0 0 0-1 1v8a1 1 0 0 0 1 1l.117-.007A1 1 0 0 0 11 16v-3h2a1 1 0 0 0 .993-.883L14 12a1 1 0 0 0-1-1h-2V9h3a1 1 0 0 0 0-2"/></svg>
